Adwaita++/actions/16/text_word_spacing.svg

<svg fill="none" height="16" viewBox="0 0 16 16" width="16" xmlns="http://www.w3.org/2000/svg" xmlns:xlink="http://www.w3.org/1999/xlink">
  <defs>
    <clipPath id="clip0">
      <path d="m0 0h16v16h-16z"/>
    </clipPath>
  </defs>
  <g clip-path="url(#clip0)">
    <g fill="#444">
      <path d="m1.69711 6.84162c0 .11715-.02312.22659-.06936.32832-.04316.10174-.10328.19114-.18035.26821-.07707.07399-.16802.1341-.27283.18035-.10174.04316-.211179.06474-.328327.06474-.117149 0-.228131-.02158-.332948-.06474-.101734-.04625-.191137-.10636-.268208-.18035-.073989-.07707-.134104-.16647-.1803471-.26821-.0431599-.10173-.0647399-.21117-.0647399-.32832 0-.11407.02158-.22197.0647399-.3237.0462431-.10482.1063581-.19422.1803471-.26821.077071-.07707.166474-.13719.268208-.18035.104817-.04624.215799-.06936.332948-.06936.117148 0 .226587.02312.328327.06936.10481.04316.19576.10328.27283.18035.07707.07399.13719.16339.18035.26821.04624.10173.06936.20963.06936.3237zm-.21734 6.29828h-1.271678v-4.95262h1.271678z"/>
      <path d="m3.70867 13.1399h-1.26243v-4.95262h.30521l.41618.48093c.20347-.18497.43314-.32678.68902-.42544.25896-.10173.52871-.1526.80925-.1526.30212 0 .58728.05858.85549.17573.26821.11406.5025.27283.70289.4763.20038.20038.35761.43622.47167.70751.11715.26821.17573.55489.17573.86009v2.8301h-1.26243v-2.8301c0-.1295-.02466-.2512-.07399-.36529-.04933-.11715-.11715-.21888-.20347-.3052s-.18651-.15415-.30058-.20347c-.11406-.04933-.23583-.07399-.36531-.07399-.13257 0-.25742.02466-.37457.07399-.11715.04932-.21888.11715-.3052.20347s-.15415.18805-.20347.3052c-.04933.11409-.07399.23579-.07399.36529z"/>
      <path d="m11.9168 6.84162c0 .11715-.0232.22659-.0694.32832-.0432.10174-.1033.19114-.1803.26821-.0771.07399-.1681.1341-.2729.18035-.1017.04316-.2112.06474-.3283.06474-.1172 0-.2281-.02158-.333-.06474-.1017-.04625-.1911-.10636-.2682-.18035-.0739-.07707-.1341-.16647-.1803-.26821-.0432-.10173-.0647-.21117-.0647-.32832 0-.11407.0215-.22197.0647-.3237.0462-.10482.1064-.19422.1803-.26821.0771-.07707.1665-.13719.2682-.18035.1049-.04624.2158-.06936.333-.06936.1171 0 .2266.02312.3283.06936.1048.04316.1958.10328.2729.18035.077.07399.1371.16339.1803.26821.0462.10173.0694.20963.0694.3237zm-.2174 6.29828h-1.2717v-4.95262h1.2717z"/>
      <path d="m13.9283 13.1399h-1.2624v-4.95262h.3052l.4162.58729c.2035-.18497.4347-.32679.6936-.42544.259-.10173.5272-.1526.8046-.1526h1.1145v1.25781h-1.1145c-.1325 0-.2574.02466-.3745.07398-.1172.04933-.2189.11715-.3052.20347s-.1542.18806-.2035.30521c-.0493.1171-.074.242-.074.3746z"/>
    </g>
    <path d="m10.0036 4.99998-.0036-4.99998h.404.0418c.078 0 .155.0194376.2229.062509l3.122 1.999991c.1386.08593.2092.26172.2093.4375.0001.17579-.0702.35157-.2087.4375l-3.1191 1.99998c-.0678.04313-.1449.06316-.2228.0625h-.0418z" fill="#ff7800"/>
    <path d="m6.99641 4.99998.00359-4.99998h-.404-.04179c-.07798 0-.15505.0194376-.22294.062509l-3.12199 1.999991c-.13857.08593-.20915.26172-.20928.4375-.00013.17579.07021.35157.20865.4375l3.11912 1.99998c.06783.04313.14488.06316.22285.0625h.04179z" fill="#ff7800"/>
  </g>
</svg>

<svg xmlns="http://www.w3.org/2000/svg" fill="none" width="16" height="16" viewBox="0 0 16 16">
 <g clip-path="url(#clip0)">
  <path fill="#444" d="M1.69711 6.84162C1.69711 6.95877 1.67399 7.06821 1.62775 7.16994C1.58459 7.27168 1.52447 7.36108 1.4474 7.43815C1.37033 7.51214 1.27938 7.57225 1.17457 7.6185C1.07283 7.66166 0.963391 7.68324 0.846243 7.68324C0.729094 7.68324 0.618112 7.66166 0.513295 7.6185C0.411561 7.57225 0.322158 7.51214 0.245087 7.43815C0.171098 7.36108 0.110983 7.27168 0.0647399 7.16994C0.02158 7.06821 0 6.95877 0 6.84162C0 6.72755 0.02158 6.61965 0.0647399 6.51792C0.110983 6.4131 0.171098 6.3237 0.245087 6.24971C0.322158 6.17264 0.411561 6.11252 0.513295 6.06936C0.618112 6.02312 0.729094 6 0.846243 6C0.963391 6 1.07283 6.02312 1.17457 6.06936C1.27938 6.11252 1.37033 6.17264 1.4474 6.24971C1.52447 6.3237 1.58459 6.4131 1.62775 6.51792C1.67399 6.61965 1.69711 6.72755 1.69711 6.84162ZM1.47977 13.1399H0.208092V8.18728H1.47977V13.1399Z"/>
  <path fill="#444" d="M3.70867 13.1399H2.44624V8.18728H2.75145L3.16763 8.66821C3.3711 8.48324 3.60077 8.34143 3.85665 8.24277C4.11561 8.14104 4.38536 8.09017 4.6659 8.09017C4.96802 8.09017 5.25318 8.14875 5.52139 8.2659C5.7896 8.37996 6.02389 8.53873 6.22428 8.7422C6.42466 8.94258 6.58189 9.17842 6.69595 9.44971C6.8131 9.71792 6.87168 10.0046 6.87168 10.3098V13.1399H5.60925V10.3098C5.60925 10.1803 5.58459 10.0586 5.53526 9.94451C5.48593 9.82736 5.41811 9.72563 5.33179 9.63931C5.24547 9.55299 5.14528 9.48516 5.03121 9.43584C4.91715 9.38651 4.79538 9.36185 4.6659 9.36185C4.53333 9.36185 4.40848 9.38651 4.29133 9.43584C4.17418 9.48516 4.07245 9.55299 3.98613 9.63931C3.89981 9.72563 3.83198 9.82736 3.78266 9.94451C3.73333 10.0586 3.70867 10.1803 3.70867 10.3098V13.1399Z"/>
  <path fill="#444" d="M11.9168 6.84162C11.9168 6.95877 11.8936 7.06821 11.8474 7.16994C11.8042 7.27168 11.7441 7.36108 11.6671 7.43815C11.59 7.51214 11.499 7.57225 11.3942 7.6185C11.2925 7.66166 11.183 7.68324 11.0659 7.68324C10.9487 7.68324 10.8378 7.66166 10.7329 7.6185C10.6312 7.57225 10.5418 7.51214 10.4647 7.43815C10.3908 7.36108 10.3306 7.27168 10.2844 7.16994C10.2412 7.06821 10.2197 6.95877 10.2197 6.84162C10.2197 6.72755 10.2412 6.61965 10.2844 6.51792C10.3306 6.4131 10.3908 6.3237 10.4647 6.24971C10.5418 6.17264 10.6312 6.11252 10.7329 6.06936C10.8378 6.02312 10.9487 6 11.0659 6C11.183 6 11.2925 6.02312 11.3942 6.06936C11.499 6.11252 11.59 6.17264 11.6671 6.24971C11.7441 6.3237 11.8042 6.4131 11.8474 6.51792C11.8936 6.61965 11.9168 6.72755 11.9168 6.84162ZM11.6994 13.1399H10.4277V8.18728H11.6994V13.1399Z"/>
  <path fill="#444" d="M13.9283 13.1399H12.6659V8.18728H12.9711L13.3873 8.77457C13.5908 8.5896 13.822 8.44778 14.0809 8.34913C14.3399 8.2474 14.6081 8.19653 14.8855 8.19653H16V9.45434H14.8855C14.753 9.45434 14.6281 9.479 14.511 9.52832C14.3938 9.57765 14.2921 9.64547 14.2058 9.73179C14.1195 9.81811 14.0516 9.91985 14.0023 10.037C13.953 10.1541 13.9283 10.279 13.9283 10.4116V13.1399Z"/>
  <path fill="#FF7800" d="M10.0036 4.99998L10 0H10.404H10.4458C10.5238 0 10.6008 0.0194376 10.6687 0.062509L13.7907 2.0625C13.9293 2.14843 13.9999 2.32422 14 2.5C14.0001 2.67579 13.9298 2.85157 13.7913 2.9375L10.6722 4.93748C10.6044 4.98061 10.5273 5.00064 10.4494 4.99998H10.4076H10.0036Z"/>
  <path fill="#FF7800" d="M6.99641 4.99998L7 0H6.596H6.55421C6.47623 0 6.39916 0.0194376 6.33127 0.062509L3.20928 2.0625C3.07071 2.14843 3.00013 2.32422 3 2.5C2.99987 2.67579 3.07021 2.85157 3.20865 2.9375L6.32777 4.93748C6.3956 4.98061 6.47265 5.00064 6.55062 4.99998H6.59241H6.99641Z"/>
 </g>
 <defs>
  <clipPath id="clip0">
   <rect fill="#fff" width="16" height="16"/>
  </clipPath>
 </defs>
</svg>
